packages/calcite-ui-icons/icons/parameters-16.svg

<?xml version="1.0" encoding="UTF-8"?><svg id="icons" xmlns="http://www.w3.org/2000/svg" viewBox="0 0 16 16"><defs><style>.cls-1{fill:none;}</style></defs><path d="M12.5,15H3.5c-1.92969,0-3.5-1.57031-3.5-3.5v-7C0,2.57031,1.57031,1,3.5,1h9c1.92969,0,3.49,1.57031,3.49,3.5l.01,7c0,1.92969-1.57031,3.5-3.5,3.5ZM3.5,2c-1.37891,0-2.5,1.12109-2.5,2.5v7c0,1.37891,1.12109,2.5,2.5,2.5h9c1.37891,0,2.5-1.12109,2.5-2.5v-7c0-1.37891-1.12109-2.5-2.5-2.5H3.5ZM7,12h-1V4h2.47168c.79883,0,1.55566.38672,2.02539,1.03418.47754.65918.60156,1.49512.33984,2.29395-.32227.98438-1.32031,1.67188-2.42676,1.67188h-1.41016v3ZM7,8h1.41016c.67969,0,1.28613-.4043,1.47559-.98242.16113-.49121.08887-1-.19922-1.39648-.28125-.38867-.73535-.62109-1.21484-.62109h-1.47168v3Z"/><rect class="cls-1" width="16" height="16"/></svg>

<svg xmlns="http://www.w3.org/2000/svg" viewBox="0 0 16 16"><path d="M12.5 15h-9C1.57 15 0 13.43 0 11.5v-7C0 2.57 1.57 1 3.5 1h9c1.93 0 3.49 1.57 3.49 3.5l.01 7c0 1.93-1.57 3.5-3.5 3.5zm-9-13A2.502 2.502 0 0 0 1 4.5v7C1 12.879 2.121 14 3.5 14h9c1.379 0 2.5-1.121 2.5-2.5v-7C15 3.121 13.879 2 12.5 2h-9zM7 12H6V4h2.472a2.51 2.51 0 0 1 2.025 1.034c.478.66.602 1.495.34 2.294C10.515 8.313 9.517 9 8.41 9H7v3zm0-4h1.41c.68 0 1.286-.404 1.476-.982.16-.492.089-1-.2-1.397A1.504 1.504 0 0 0 8.473 5H7v3z"/><path fill="none" d="M0 0h16v16H0z"/></svg>
